X: 5982
T: Cân Crwtyn Y Gwartheg
R: reel
M: 4/4
K: Eminor
|:EAAA cBBB2|c2A2 BGE2|EAAA cBBB|cABG A2A2|
ecBd cBA2|c2 BA BGE2|BBBG AAAc|BGFD E2E2:|
EEEG FFFA|B/A/G/F/ED EEE2|GGGB AAAc|BGFD E2E2|
EFEG FGFA|GEED EEE2|GGGB A3c|BGFD E2E2|

